X:1
T:I Will Praise Thee, Blessèd Jesus
T:I Will Praise Thee, Blessèd Jesus
T:John Samuel Hendricks
T:John Samuel Hendricks, 1902
T:Public Domain Courtesy of the Cyber Hymnal™
T:Public Domain Courtesy of the Cyber Hymnal™
C:John Samuel Hendricks
Z:Public Domain
Z:Courtesy of the Cyber Hymnal™
%%score ( 1 2 ) ( 3 4 )
L:1/8
Q:1/4=90
M:4/4
K:Eb
V:1 treble 
V:2 treble 
V:3 bass 
V:4 bass 
V:1
 [EG]>[FA] | [GB]>[^F=A] [GB]>[_Ac] [GB]>[=FA] [EG]>[GB] | [Ae]>[ce] [Bd]>[Ac] [GB]2 [EG]>[EG] | %3
w: 1.~I will|praise Thee, bless- èd Je- sus, I will|praise Thee day by day, As I|
w: 2.~I will|praise Thee, bless- èd Je- sus, For Thy|watch- care thro’ the day; Thou art|
w: 3.~I will|praise Thee, bless- èd Je- sus, When I’ve|reached the o- ther shore, With my|
 [FA]>[=EG] [FA]>[GB] [Ad]>[Ac] [GB]>[FA] | [EG]>[Ec] [EB]>E !fermata![DF]2 [EG]>[FA] | %5
w: tra- vel life’s rough jour- ney I will|praise Thee all the way; I will|
w: ev- er near to guide me As I|tread life’s rug- ged way; And when|
w: fa- ther and my mo- ther And my|friends who’ve gone be- fore; We will|
 [GB]>[^F=A] [GB]>[_Ac] [GB]>[=FA] [EG]>[GB] | [Ae]>[ce] [Bd]>[Ac] [GB]2 [EB]>[EB] | %7
w: praise Thee in the morn- ing, I will|praise Thee all day long, And my|
w: life is al- most o- ver, And the|time has come to go, I will|
w: praise Thee, bless- èd Je- sus, While our|friends are com- ing o’er, We will|
 [Ec]>[Ec] [Ec]>[Ec] [Ff]>[Fe] [Fd]>[Fc] | [AB]>[AB] [Ac]>[Ad] !fermata![Ge]2 || %9
w: last thought in the ev- ening Shall be|praise to Thee in song.|
w: praise Thee while I’m pass- ing From this|to the glo- ry shore.|
w: praise Thee, bless- èd Je- sus, We will|praise Thee ev- er- more.|
"^Refrain" [EG]>[FA] | [GB]4 [Ge]4 | [Ae]4 [Ac]2 [Ac]>[Ac] | %12
w: |||
w: I will|praise Thee,|praise Thee, I will|
w: |||
 [GB]>[GB] [GB]>[GB] [Ac]>[GB] [Ge]>[EG] | [DF]6 [EG]>[FA] | %14
w: ||
w: praise Thee, bless- èd Je- sus, all the|way; I will|
w: ||
 [GB]>[^F=A] [GB]>[_Ac] [GB]>[=FA] [EG]>[GB] | [Ae]>[ce] [Bd]>[Ac] [GB]2 [EB]>[EB] | %16
w: ||
w: praise Thee in the morn- ing, I will|praise Thee all day long. And my|
w: ||
 [Ec]>[Ec] [Ec]>[Ec] [Ff]>[Fe] [Fd]>[Fc] | [AB]>[AB] [Ac]>[Ad] !fermata![Ge]2 |] %18
w: ||
w: last thought in the ev- ening Shall be|praise to Thee in song.|
w: ||
V:2
 x2 | x8 | x8 | x8 | x7/2 E/ x4 | x8 | x8 | x8 | x6 || x2 | x8 | x8 | x8 | x8 | x8 | x8 | x8 | %17
 x6 |] %18
V:3
 [E,B,]>[E,B,] | [E,E]>[E,E] [E,E]>[E,E] [E,E]>[E,E] [E,B,]>[E,B,] | %2
w: ~ ~|~ ~ ~ ~ ~ ~ ~ ~|
 [A,,C]>[A,,E] [A,,E]>[C,E] [E,E]2 [E,B,]>[E,B,] | %3
w: ~ ~ ~ ~ ~ ~ ~|
 [B,,B,]>[B,,B,] [B,,B,]>[B,,B,] [B,,B,]>[B,,B,] [C,B,]>[D,B,] | %4
w: ~ ~ ~ ~ ~ ~ ~ ~|
 [E,B,]>[E,A,] [E,G,]>[G,,B,] !fermata![B,,B,]2 [E,B,]>[E,B,] | %5
w: ~ ~ ~ ~ ~ ~ ~|
 [E,E]>[E,E] [E,E]>[E,E] [E,E]>[E,E] [E,B,]>[E,B,] | %6
w: ~ ~ ~ ~ ~ ~ ~ ~|
 [A,,C]>[A,,E] [A,,E]>[C,E] [E,E]2 [E,G,]>[E,G,] | A,>_A, _A,>_A, [F,=A,]>[F,A,] [F,B,]>[F,E] | %8
w: ~ ~ ~ ~ ~ ~ ~|~ ~ ~ ~ ~ ~ ~ ~|
 [B,D]>[B,D] [B,,D]>[B,,B,] !fermata![E,B,]2 || [E,B,]>[E,B,] | %10
w: ~ ~ ~ ~ ~|I will|
 [E,E]>[E,E] [E,E]>[E,E] [E,B,]>[E,B,] [E,B,]>[E,B,] | [A,C]>[A,C] [A,C]>[A,C] [A,E]2 [A,E]>[A,E] | %12
w: praise Thee, bless- èd Je- sus, I will|praise Thee ev- ery day, ~ ~|
 [E,E]>[E,E] [E,E]>[E,E] [E,E]>[E,E] [E,B,]>[E,B,] | B,6 [G,B,]>[F,B,] | %14
w: ~ ~ ~ ~ ~ ~ ~ ~|~ all the|
 [E,E]>[E,E] [E,E]>[E,E] [E,E]>[E,E] [E,B,]>[E,B,] | %15
w: way; * * * * * * *|
 [A,,C]>[A,,E] [A,,E]>[C,E] [E,E]2 [E,G,]>[E,G,] | A,>_A, _A,>_A, [F,=A,]>[F,A,] [F,B,]>[F,E] | %17
w: ||
 [B,D]>[B,D] [B,,D]>[B,,B,] !fermata![E,B,]2 |] %18
w: |
V:4
 x2 | x8 | x8 | x8 | x8 | x8 | x8 | =A,>=A, =A,>=A, x4 | x6 || x2 | x8 | x8 | x8 | %13
 B,,2 B,>B, (B,>A,) x2 | x8 | x8 | =A,>=A, =A,>=A, x4 | x6 |] %18

